build/category/CubeOutline.svg

<svg xmlns="http://www.w3.org/2000/svg" fill="none" viewBox="0 0 24 24" focusable="false"><path d="M0 0H24V24H0z"/><path fill="#74767B" fill-rule="evenodd" d="M10.7975 4.25153L5.79754 6.43903C4.70558 6.91676 4 7.99561 4 9.1875L4 15.2634C4 16.4553 4.70558 17.5341 5.79754 18.0119L10.7975 20.1994C11.5641 20.5347 12.4359 20.5347 13.2025 20.1994L18.2025 18.0119C19.2944 17.5341 20 16.4553 20 15.2634L20 9.1875C20 7.99561 19.2944 6.91676 18.2025 6.43903L13.2025 4.25153C12.4359 3.91616 11.5641 3.91616 10.7975 4.25153ZM11.3186 5.44253L6.31861 7.63003C6.24177 7.66365 6.16832 7.70251 6.09858 7.7461C5.92217 7.85637 5.96941 8.10403 6.16001 8.18743L11.7235 10.6218C11.8893 10.6944 12.0779 10.6945 12.2438 10.6221L17.8347 8.1842C18.0259 8.10083 18.073 7.85242 17.8957 7.74257C17.8277 7.70041 17.7561 7.66274 17.6814 7.63003L12.6814 5.44253C12.247 5.25249 11.753 5.25249 11.3186 5.44253ZM5.3 15.2634L5.3 9.68886C5.3 9.4725 5.52205 9.32729 5.72026 9.41402L11.2023 11.8128C11.2892 11.8508 11.35 11.9341 11.35 12.0289L11.35 18.9876C11.35 19.0039 11.3335 19.0149 11.3186 19.0084L6.31861 16.8209C5.69983 16.5502 5.3 15.9388 5.3 15.2634ZM12.65 18.9876C12.65 19.0039 12.6665 19.0149 12.6814 19.0084L17.6814 16.8209C18.3002 16.5502 18.7 15.9388 18.7 15.2634L18.7 9.68322C18.7 9.46703 18.4783 9.32181 18.2801 9.40822L12.7635 11.8138C12.6962 11.8431 12.65 11.9079 12.65 11.9813L12.65 18.9876Z"/></svg>

<svg xmlns="http://www.w3.org/2000/svg" fill="none" viewBox="0 0 24 24" focusable="false"><path fill="#74767B" fill-rule="evenodd" d="m10.79 4.25-5 2.18A3 3 0 0 0 4 9.18v6.08c0 1.19.7 2.27 1.79 2.75l5 2.18c.77.34 1.64.34 2.41 0l5-2.18c1.09-.48 1.8-1.56 1.8-2.75V9.18c0-1.19-.71-2.27-1.8-2.75l-5-2.18c-.77-.34-1.64-.34-2.41 0m.52 1.19-5 2.19c-.07.03-.15.07-.22.11-.17.11-.13.36.07.44l5.56 2.44c.16.07.35.07.52 0l5.59-2.44c.19-.08.24-.33.06-.44-.07-.04-.14-.08-.21-.11l-5-2.19c-.44-.19-.93-.19-1.37 0m-6.02 9.82V9.68c0-.21.23-.36.43-.27l5.48 2.4c.08.04.15.12.15.21v6.96c0 .02-.02.03-.04.02l-5-2.18c-.62-.27-1.02-.89-1.02-1.56m7.35 3.72c0 .02.02.03.04.02l5-2.18c.62-.27 1.02-.89 1.02-1.56V9.68c0-.22-.23-.36-.42-.28l-5.52 2.41c-.07.03-.12.09-.12.17z"/></svg>
